assets/svg/app/synthetix.svg

<svg width="146" height="10" viewBox="0 0 146 10" fill="none" xmlns="http://www.w3.org/2000/svg">
<path d="M14.0895 4.74245C13.4669 4.1682 12.7187 3.8812 11.8445 3.8812H3.17882C3.01788 3.8812 2.8798 3.82844 2.76432 3.72265C2.64883 3.61713 2.59123 3.48842 2.59123 3.33653V2.67327C2.59123 2.52831 2.64883 2.4028 2.76432 2.29701C2.8798 2.19149 3.01788 2.13846 3.17882 2.13846H14.3519C14.3798 2.13846 14.4024 2.1302 14.4199 2.11368C14.4374 2.09742 14.4462 2.07904 14.4462 2.05932V0.079143C14.4462 0.052762 14.4374 0.0330429 14.4199 0.0197191C14.4024 0.00666187 14.3795 0 14.3519 0H3.17882C2.29757 0 1.54734 0.28726 0.928404 0.861513C0.309468 1.43577 0 2.1286 0 2.94055V3.06926C0 3.88787 0.309468 4.58416 0.928404 5.15842C1.54734 5.73267 2.29757 6.01966 3.17882 6.01966H11.8445C11.9984 6.01966 12.1331 6.07083 12.2483 6.17315C12.3638 6.27548 12.4214 6.40259 12.4214 6.55448V7.21773C12.4214 7.36962 12.3638 7.49673 12.2483 7.59906C12.1328 7.70139 11.9981 7.75255 11.8445 7.75255H0.661008C0.640113 7.75255 0.62063 7.76081 0.603406 7.77733C0.5859 7.79385 0.577147 7.81544 0.577147 7.84182V9.82199C0.577147 9.84171 0.5859 9.8601 0.603406 9.87635C0.620913 9.89287 0.640113 9.90113 0.661008 9.90113H11.8445C12.7187 9.90113 13.4669 9.61254 14.0895 9.03482C14.7119 8.45737 15.0233 7.76267 15.0233 6.95073V6.82175C15.023 6.0098 14.7119 5.3167 14.0895 4.74245Z" fill="currentColor"/>
<path d="M32.9027 0H30.4792C30.4583 0 30.4388 0.00666187 30.4216 0.0197191C30.4041 0.0330429 30.3954 0.052762 30.3954 0.079143V2.59387C30.3954 2.81158 30.2762 2.97679 30.0387 3.08898L25.2024 4.97988L20.3662 3.08898C20.1284 2.97679 20.0095 2.81184 20.0095 2.59387V0.079143C20.0095 0.052762 20.0025 0.0330429 19.9886 0.0197191C19.9742 0.00666187 19.9534 0 19.9254 0H17.5019C17.481 0 17.4615 0.00666187 17.4443 0.0197191C17.4268 0.0330429 17.418 0.052762 17.418 0.079143V2.96027C17.418 3.38956 17.544 3.78208 17.7958 4.13835C18.0477 4.4949 18.3902 4.75871 18.8239 4.93032L23.9016 6.94007V9.8116C23.9016 9.83798 23.9104 9.85957 23.9279 9.87609C23.9454 9.89261 23.968 9.90087 23.9959 9.90087H26.4194C26.4403 9.90087 26.4595 9.89261 26.477 9.87609C26.4945 9.85957 26.5033 9.83825 26.5033 9.8116V6.94034L31.581 4.94044C32.0144 4.76217 32.3575 4.4965 32.6091 4.14342C32.8609 3.79034 32.9866 3.39942 32.9866 2.97013V0.079143C32.9866 0.052762 32.9778 0.0330429 32.9603 0.0197191C32.9428 0.00666187 32.9236 0 32.9027 0Z" fill="currentColor"/>
<path d="M50.9038 0H48.4803C48.4524 0 48.4312 0.00826072 48.4174 0.0247822C48.4032 0.0413036 48.3965 0.0594239 48.3965 0.079143V7.76215H47.3788C47.1899 7.76215 47.029 7.683 46.8963 7.52445L42.1964 1.03952C41.6926 0.373065 40.9966 0.026381 40.1086 0H36.0593C36.0313 0 36.0084 0.00826072 35.9909 0.0247822C35.9734 0.0413036 35.9647 0.0594239 35.9647 0.079143V9.82146C35.9647 9.84118 35.9734 9.85957 35.9909 9.87582C36.0084 9.89235 36.031 9.90061 36.0593 9.90061H38.4828C38.5037 9.90061 38.5229 9.89235 38.5404 9.87582C38.5579 9.85957 38.5666 9.84118 38.5666 9.82146V2.13846H39.5843C39.7732 2.13846 39.9338 2.22107 40.0668 2.38602L44.7667 8.87095C45.2704 9.53767 45.9662 9.88089 46.8545 9.90061H50.9041C50.9321 9.90061 50.953 9.89235 50.9671 9.87582C50.9809 9.85957 50.988 9.84118 50.988 9.82146V0.079143C50.988 0.0594239 50.9809 0.0413036 50.9671 0.0247822C50.9527 0.00826072 50.9318 0 50.9038 0Z" fill="currentColor"/>
<path d="M68.4201 0H53.5752C53.5473 0 53.5261 0.00826072 53.5123 0.0247822C53.4981 0.0413036 53.4914 0.0594239 53.4914 0.079143V2.05932C53.4914 2.07904 53.4981 2.09742 53.5123 2.11368C53.5261 2.1302 53.5473 2.13846 53.5752 2.13846H59.7019V9.82146C59.7019 9.84118 59.7087 9.85957 59.7228 9.87582C59.7366 9.89235 59.7578 9.90061 59.7858 9.90061H62.2093C62.2372 9.90061 62.2581 9.89235 62.2723 9.87582C62.2861 9.85957 62.2931 9.84118 62.2931 9.82146V2.13846H68.4198C68.4478 2.13846 68.4704 2.1302 68.4879 2.11368C68.5054 2.09716 68.5141 2.07904 68.5141 2.05932V0.079143C68.5141 0.0594239 68.5054 0.0413036 68.4879 0.0247822C68.4709 0.00826072 68.4481 0 68.4201 0Z" fill="currentColor"/>
<path d="M86.4209 0H83.9974C83.9765 0 83.957 0.00826072 83.9398 0.0247822C83.9223 0.0413036 83.9135 0.0594239 83.9135 0.079143V3.88094H74.0939V0.079143C74.0939 0.0594239 74.0851 0.0413036 74.0676 0.0247822C74.0501 0.0085272 74.0272 0 73.9996 0H71.576C71.5552 0 71.5357 0.00826072 71.5185 0.0247822C71.5009 0.0413036 71.4922 0.0594239 71.4922 0.079143V9.82146C71.4922 9.84118 71.5009 9.85957 71.5185 9.87582C71.536 9.89235 71.5552 9.90061 71.576 9.90061H73.9996C74.0275 9.90061 74.0501 9.89235 74.0676 9.87582C74.0851 9.8593 74.0939 9.84118 74.0939 9.82146V6.01967H83.9135V9.82146C83.9135 9.84118 83.9223 9.85957 83.9398 9.87582C83.9573 9.89235 83.9765 9.90061 83.9974 9.90061H86.4209C86.4488 9.90061 86.4714 9.89235 86.4889 9.87582C86.5065 9.8593 86.5152 9.84118 86.5152 9.82146V0.079143C86.5152 0.0594239 86.5062 0.0413036 86.4889 0.0247822C86.4714 0.00826072 86.4486 0 86.4209 0Z" fill="currentColor"/>
<path d="M104.358 0H92.5973C91.7228 0 90.9745 0.286993 90.3522 0.861246C89.7296 1.4355 89.4185 2.1286 89.4185 2.94055V6.95019C89.4185 7.76881 89.7296 8.4651 90.3522 9.03936C90.9745 9.61361 91.7228 9.90087 92.5973 9.90087H104.358C104.379 9.90087 104.398 9.89261 104.415 9.87609C104.432 9.85957 104.442 9.84145 104.442 9.82173V7.84155C104.442 7.81517 104.433 7.79545 104.415 7.78213C104.398 7.76907 104.379 7.76241 104.358 7.76241H92.5973C92.4363 7.76241 92.3 7.70965 92.1881 7.60412C92.076 7.4986 92.0201 7.37309 92.0201 7.22786V6.01966H104.35C104.378 6.01966 104.399 6.0114 104.413 5.99488C104.427 5.97836 104.434 5.96024 104.434 5.94052V3.96035C104.434 3.93397 104.427 3.91425 104.413 3.90092C104.399 3.88787 104.378 3.8812 104.35 3.8812H92.0201V2.67327C92.0201 2.52805 92.076 2.4028 92.1881 2.29701C92.3 2.19149 92.4363 2.13846 92.5973 2.13846H104.358C104.379 2.13846 104.398 2.1302 104.415 2.11368C104.432 2.09742 104.442 2.07904 104.442 2.05932V0.079143C104.442 0.0594239 104.433 0.0413036 104.415 0.0247822C104.398 0.00852719 104.379 0 104.358 0Z" fill="currentColor"/>
<path d="M122.273 0H107.429C107.401 0 107.379 0.00826072 107.366 0.0247822C107.351 0.0413036 107.345 0.0594239 107.345 0.079143V2.05932C107.345 2.07904 107.351 2.09742 107.366 2.11368C107.379 2.1302 107.401 2.13846 107.429 2.13846H113.555V9.82146C113.555 9.84118 113.562 9.85957 113.576 9.87582C113.59 9.89235 113.611 9.90061 113.639 9.90061H116.063C116.091 9.90061 116.111 9.89235 116.126 9.87582C116.14 9.85957 116.146 9.84118 116.146 9.82146V2.13846H122.273C122.301 2.13846 122.324 2.1302 122.341 2.11368C122.359 2.09716 122.367 2.07904 122.367 2.05932V0.079143C122.367 0.0594239 122.359 0.0413036 122.341 0.0247822C122.324 0.00826072 122.301 0 122.273 0Z" fill="currentColor"/>
<path d="M127.916 0.0197191C127.902 0.00666187 127.881 0 127.853 0H125.429C125.401 0 125.38 0.00666187 125.366 0.0197191C125.352 0.0330429 125.346 0.052762 125.346 0.079143V9.82146C125.346 9.84118 125.352 9.85957 125.366 9.87582C125.38 9.89235 125.401 9.90061 125.429 9.90061H127.853C127.881 9.90061 127.902 9.89235 127.916 9.87582C127.93 9.8593 127.937 9.84118 127.937 9.82146V0.079143C127.937 0.0530285 127.93 0.0330429 127.916 0.0197191Z" fill="currentColor"/>
<path d="M134.607 2.40599C134.502 2.29381 134.372 2.23758 134.218 2.23758H131.071C131.043 2.23758 131.02 2.22932 131.003 2.2128C130.986 2.19654 130.977 2.17816 130.977 2.15844V0.178264C130.977 0.158545 130.986 0.140425 131.003 0.123903C131.02 0.107648 131.043 0.0991211 131.071 0.0991211H134.397C135.236 0.0991211 135.96 0.419424 136.569 1.0595L137.376 1.98017L135.803 3.77221L134.607 2.40599ZM140.419 1.04964C141.027 0.41596 141.754 0.0991211 142.601 0.0991211H145.916C145.944 0.0991211 145.965 0.105783 145.979 0.11884C145.993 0.132164 146 0.151883 146 0.178264V2.15844C146 2.17816 145.993 2.19654 145.979 2.2128C145.965 2.22932 145.944 2.23758 145.916 2.23758H142.769C142.615 2.23758 142.485 2.29381 142.38 2.40599L140.062 5.03956L142.391 7.69286C142.496 7.79865 142.622 7.85141 142.769 7.85141H145.916C145.944 7.85141 145.965 7.85967 145.979 7.87619C145.993 7.89271 146 7.9143 146 7.94041V9.92058C146 9.9403 145.993 9.95869 145.979 9.97495C145.965 9.99147 145.944 9.99973 145.916 9.99973H142.601C141.755 9.99973 141.031 9.67969 140.429 9.03935L138.499 6.84147L136.569 9.03935C135.96 9.67969 135.233 9.99973 134.386 9.99973H131.071C131.043 9.99973 131.022 9.99147 131.008 9.97495C130.994 9.95842 130.987 9.93711 130.987 9.91046V7.93028C130.987 7.91057 130.994 7.89244 131.008 7.87592C131.022 7.8594 131.043 7.85114 131.071 7.85114H134.218C134.365 7.85114 134.495 7.79518 134.607 7.68273L136.883 5.08886L140.419 1.04964Z" fill="currentColor"/>
</svg>

<svg viewBox="0 0 146 10" fill="none" xmlns="http://www.w3.org/2000/svg">
    <path d="M14.09 4.742c-.623-.574-1.371-.86-2.245-.86H3.178a.592.592 0 01-.415-.16.503.503 0 01-.173-.385v-.664c0-.145.058-.27.173-.376a.593.593 0 01.415-.159h11.173c.028 0 .05-.008.068-.024a.073.073 0 00.026-.055V.08a.074.074 0 00-.026-.06.111.111 0 00-.067-.02H3.179C2.298 0 1.547.287.929.862.308 1.436 0 2.129 0 2.94v.128c0 .819.31 1.515.928 2.09.62.574 1.37.86 2.25.86h8.666a.59.59 0 01.404.154c.116.102.173.23.173.381v.664a.489.489 0 01-.173.381.59.59 0 01-.403.154H.66c-.02 0-.04.008-.058.024a.085.085 0 00-.026.065v1.98c0 .02.009.038.026.054A.082.082 0 00.66 9.9h11.183c.875 0 1.623-.288 2.245-.866.623-.578.934-1.272.934-2.084v-.13c0-.811-.311-1.504-.934-2.079zM32.903 0h-2.424c-.02 0-.04.007-.057.02-.018.013-.027.033-.027.06v2.514c0 .218-.119.383-.356.495l-4.837 1.89-4.836-1.89c-.238-.112-.357-.277-.357-.495V.079c0-.026-.006-.046-.02-.06A.106.106 0 0019.925 0h-2.423a.097.097 0 00-.058.02c-.017.013-.026.033-.026.06v2.88c0 .43.126.822.378 1.178.252.357.594.62 1.028.792l5.078 2.01v2.872c0 .026.008.048.026.064.017.017.04.025.068.025h2.423c.021 0 .04-.008.058-.025a.084.084 0 00.026-.064V6.94l5.078-2a2.306 2.306 0 001.028-.797c.252-.353.378-.744.378-1.173V.08a.072.072 0 00-.027-.06.094.094 0 00-.057-.02zm18.001 0H48.48c-.028 0-.049.008-.063.025a.081.081 0 00-.02.054v7.683h-1.018a.608.608 0 01-.483-.238l-4.7-6.484C41.693.373 40.996.026 40.11 0h-4.05a.096.096 0 00-.068.025.074.074 0 00-.026.054v9.742c0 .02.008.039.026.055.017.016.04.025.068.025h2.424c.02 0 .04-.009.057-.025a.073.073 0 00.027-.055V2.138h1.017a.6.6 0 01.483.248l4.7 6.485c.503.667 1.2 1.01 2.087 1.03h4.05c.028 0 .049-.009.063-.025a.083.083 0 00.021-.055V.08a.083.083 0 00-.02-.054.085.085 0 00-.066-.026zM68.42 0H53.575c-.028 0-.049.008-.063.025a.081.081 0 00-.02.054v1.98c0 .02.006.038.02.055.014.016.035.024.063.024h6.127v7.683c0 .02.007.039.02.055a.083.083 0 00.064.025h2.423c.028 0 .05-.009.063-.025a.083.083 0 00.021-.055V2.138h6.127c.028 0 .05-.008.068-.024a.074.074 0 00.026-.055V.08a.074.074 0 00-.026-.054A.093.093 0 0068.42 0zm18 0h-2.423a.08.08 0 00-.057.025.074.074 0 00-.026.054v3.802h-9.82V.079a.074.074 0 00-.026-.054A.097.097 0 0074 0h-2.424a.08.08 0 00-.057.025.074.074 0 00-.027.054v9.742c0 .02.009.039.026.055a.082.082 0 00.058.025H74c.028 0 .05-.009.068-.025a.074.074 0 00.026-.055V6.02h9.82v3.8c0 .02.008.039.026.055a.082.082 0 00.057.025h2.424c.028 0 .05-.009.068-.025a.074.074 0 00.026-.055V.08a.075.075 0 00-.026-.054A.095.095 0 0086.42 0zm17.938 0h-11.76c-.875 0-1.623.287-2.246.861-.622.575-.934 1.268-.934 2.08v4.01c0 .818.312 1.514.934 2.088.623.575 1.37.862 2.245.862h11.761a.08.08 0 00.057-.025.076.076 0 00.027-.054v-1.98c0-.027-.009-.047-.027-.06a.091.091 0 00-.057-.02h-11.76a.574.574 0 01-.41-.158.5.5 0 01-.168-.376V6.02h12.33c.028 0 .049-.009.063-.025a.082.082 0 00.021-.054V3.96c0-.027-.007-.047-.021-.06-.014-.013-.035-.02-.063-.02H92.02V2.673a.5.5 0 01.168-.376.574.574 0 01.41-.159h11.76a.08.08 0 00.057-.024c.017-.017.027-.035.027-.055V.08a.073.073 0 00-.027-.054.081.081 0 00-.057-.025zm17.915 0h-14.844c-.028 0-.05.008-.063.025a.078.078 0 00-.021.054v1.98c0 .02.006.038.021.055.013.016.035.024.063.024h6.126v7.683c0 .02.007.039.021.055.014.016.035.025.063.025h2.424a.081.081 0 00.063-.025.08.08 0 00.02-.055V2.138h6.127a.094.094 0 00.068-.024.072.072 0 00.026-.055V.08a.072.072 0 00-.026-.054.094.094 0 00-.068-.025zm5.643.02c-.014-.013-.035-.02-.063-.02h-2.424c-.028 0-.049.007-.063.02-.014.013-.02.033-.02.06v9.74c0 .02.006.039.02.055s.035.025.063.025h2.424c.028 0 .049-.009.063-.025a.082.082 0 00.021-.055V.08c0-.026-.007-.046-.021-.06zm6.691 2.386a.512.512 0 00-.389-.168h-3.147a.094.094 0 01-.068-.025.075.075 0 01-.026-.055V.178c0-.02.009-.038.026-.054a.095.095 0 01.068-.025h3.326c.839 0 1.563.32 2.172.96l.807.921-1.573 1.792-1.196-1.366zm5.812-1.356c.608-.634 1.335-.95 2.182-.95h3.315c.028 0 .049.006.063.019.014.013.021.033.021.06v1.98a.08.08 0 01-.021.054c-.014.016-.035.025-.063.025h-3.147a.512.512 0 00-.389.168l-2.318 2.634 2.329 2.653a.513.513 0 00.378.158h3.147c.028 0 .049.009.063.025a.096.096 0 01.021.064v1.98c0 .02-.007.039-.021.055-.014.016-.035.025-.063.025h-3.315c-.846 0-1.57-.32-2.172-.96l-1.93-2.199-1.93 2.198c-.609.64-1.336.96-2.183.96h-3.315c-.028 0-.049-.008-.063-.024a.096.096 0 01-.021-.065V7.93a.08.08 0 01.021-.054c.014-.017.035-.025.063-.025h3.147a.533.533 0 00.389-.168l2.276-2.594 3.536-4.04z" fill="currentColor"/>
</svg>
